X:1
T:Richmond (Everett), SMD
T:Richmond (Everett), SMD
T:Asa Brooks Everett (1828-1875)
T:Public Domain Courtesy of the Cyber Hymnal™
C:Asa Brooks Everett (1828-1875)
Z:Public Domain
Z:Courtesy of the Cyber Hymnal™
%%score ( 1 2 ) ( 3 4 )
L:1/8
Q:1/4=110
M:4/4
K:G
V:1 treble 
V:2 treble 
V:3 bass 
V:4 bass 
V:1
 [B,D]2 | [DG]3 [DG] [EG]2 [EG]2 | [FA]6 [GB]2 | [Gd]3 [Ac] [GB]2 [FA]2 | G6 [B,D]2 | %5
 [DG]3 [DG] [EG]2 [EG]2 | [FA]3 [FA] [FA]2 Bc | [Gd]2 GA [GB]2 [FA]2 | G6 G2 | %9
 [FA]3 [FA] [FA]2 [GB]2 | [Gc]6 [FA]2 | [GB]2 [GB][Fc] [Gd]2 [Fc][GB] | [FA]6 [B,D]2 | %13
 [DG]3 [DG] [EG]2 [EG]2 | [FA]3 [FA] [FA]2 Bc | [Gd]2 GA [GB]2 [FA]2 | G6 |] %17
V:2
 x2 | x8 | x8 | x8 | G6 x2 | x8 | x6 G2 | x2 G2 x4 | G6 x2 | x8 | x8 | x8 | x8 | x8 | x6 G2 | %15
 x2 G2 x4 | G6 |] %17
V:3
 G,2 | [G,B,]3 [G,B,] [E,B,]2 [E,B,]2 | [D,D]6 [G,D]2 | [B,,D]3 [C,E] [D,D]2 [D,C]2 | [G,B,]6 G,2 | %5
 [G,B,]3 [G,B,] [E,B,]2 [E,B,]2 | [D,D]3 [D,D] [D,D]2 G,A, | [G,B,]2 [B,,D][C,E] [D,D]2 [D,C]2 | %8
 [G,,B,]6 [G,B,]2 | [D,D]3 [D,D] [D,D]2 [G,D]2 | [C,E]6 [D,D]2 | [G,D]2 D2 [B,D]2 D2 | [D,D]6 G,2 | %13
 [G,B,]3 [G,B,] [E,B,]2 [E,B,]2 | [D,D]3 [D,D] [D,D]2 G,A, | [G,B,]2 [B,,D][C,E] [D,D]2 [D,C]2 | %16
 [G,,B,]6 |] %17
V:4
 G,2 | x8 | x8 | x8 | x6 G,2 | x8 | x6 G,2 | x8 | x8 | x8 | x8 | x2 G,A, x A,G, x | x8 | x8 | %14
 x6 G,2 | x8 | x6 |] %17

